;FLAVOR:Marlin
;TIME:103
;Filament used: 0.0633857m
;Layer height: 0.1
;MINX:115.269
;MINY:122.674
;MINZ:0.3
;MAXX:134.725
;MAXY:132.295
;MAXZ:1.4
;Generated with Cura_SteamEngine main
M140 S60
M105
M190 S60
M104 S190
M105
M109 S190
M82 ;absolute extrusion mode
G21 ;metric values
G90 ;absolute positioning
M82 ;set extruder to absolute mode
M107 ;start with the fan off
G28 X0 Y0 ;move X/Y to min endstops
M300 S1318 P266
G28 Z0 ;move Z to min endstops
G0 Z0.2
G92 E0 ;zero the extruded length
G1 X40 E25 F400 ; Extrude 25mm of filament in a 4cm line. Reduce speed (F) if you have a nozzle smaller than 0.4mm!
G92 E0 ;zero the extruded length again
G1 E-1 F500 ; Retract a little
G1 X80 F4000 ; Quickly wipe away from the filament line
M117 ; Printing…
G5
G92 E0
G92 E0
G1 F1500 E-7
;LAYER_COUNT:12
;LAYER:0
M107
;MESH:Uinio-Cubic-Shell-Logo.stl
G0 F3000 X125.141 Y123.315 Z0.3
;TYPE:WALL-INNER
G1 F1500 E0
G1 F2413.9 X124.882 Y123.312 E0.01754
G1 F2019.4 X124.135 Y123.404 E0.07845
G1 X124.691 Y123.749 E0.13141
G1 F1984.1 X125.016 Y124.296 E0.18382
G1 X125.138 Y123.574 E0.24414
G1 F2413.9 X125.141 Y123.315 E0.26168
G0 F3000 X125.049 Y123.405
G0 X124.979 Y126.68
G0 X124.986 Y126.68
G1 F1684.2 X124.886 Y126.995 E0.29375
G1 F1707.3 X124.718 Y127.227 E0.32117
G1 F1709.6 X124.486 Y127.39 E0.34828
G1 F1714.3 X124.163 Y127.478 E0.3802
G1 X124.485 Y127.575 E0.41226
G1 F1709.6 X124.713 Y127.742 E0.43928
G1 F1707.3 X124.874 Y127.969 E0.46592
G1 F1688.8 X124.973 Y128.354 E0.50439
G1 X125.074 Y127.969 E0.54291
G1 F1707.3 X125.24 Y127.738 E0.57015
G1 X125.469 Y127.573 E0.59717
G1 F1726.1 X125.868 Y127.486 E0.63583
G1 X125.47 Y127.394 E0.67451
G1 F1707.3 X125.243 Y127.225 E0.7016
G1 X125.082 Y126.996 E0.7284
G1 F1684.2 X124.986 Y126.68 E0.76045
G0 F3000 X124.979 Y126.68
G0 X124.938 Y130.737
G0 X124.943 Y130.737
G1 F1854.4 X124.7 Y131.143 E0.80216
G1 F1859.9 X124.191 Y131.533 E0.85851
G1 X124.933 Y131.617 E0.92413
G1 F1879.5 X125.827 Y131.558 E1.00204
G1 X125.176 Y131.148 E1.06894
G1 F1854.4 X124.943 Y130.737 E1.11058
G0 F3000 X124.938 Y130.737
G0 X124.916 Y127.543
G0 X120.886 Y127.426
G0 X120.285 Y126.809
;TYPE:WALL-OUTER
G1 F2400 X120.269 Y128.051 E1.19516
G1 X124.104 Y128.1 E1.45635
G1 F2404.6 X124.198 Y128.13 E1.46306
G1 X124.312 Y128.245 E1.47406
G1 F2400 X124.339 Y128.358 E1.48197
G1 X124.309 Y130.675 E1.63978
G1 X124.257 Y130.807 E1.64944
G1 X124.091 Y130.906 E1.6626
G1 X119.965 Y130.855 E1.9436
G1 X119.159 Y130.742 E1.99903
G1 X118.404 Y130.44 E2.0544
G1 X117.734 Y129.963 E2.11041
G1 X117.178 Y129.315 E2.16856
G1 X116.809 Y128.581 E2.22451
G1 X116.625 Y127.771 E2.28107
G1 X116.638 Y126.947 E2.33719
G1 X116.85 Y126.139 E2.39408
G1 X117.237 Y125.43 E2.44909
G1 X117.812 Y124.796 E2.50738
G1 X118.473 Y124.355 E2.56149
G1 X118.755 Y124.246 E2.58208
G1 X119.273 Y124.061 E2.61954
G1 X120.089 Y123.973 E2.67543
G1 X124.128 Y124.024 E2.95051
G1 X124.314 Y124.105 E2.96432
G1 X124.385 Y124.288 E2.97769
G1 X124.353 Y126.688 E3.14114
G1 F2404.6 X124.209 Y126.83 E3.15489
G1 X124.115 Y126.857 E3.16154
G1 F2400 X120.285 Y126.809 E3.42238
G0 F3000 X120.283 Y127.009
G0 X120.886 Y127.426
G0 X125.05 Y127.527
G0 X125 Y131.487
G0 X129.816 Y131.559
G0 X130.737 Y131.483
G0 X131.671 Y131.165
G0 X132.501 Y130.629
G0 X133.175 Y129.908
G0 X133.656 Y129.046
G0 X133.911 Y128.091
G0 X133.929 Y127.106
G0 X133.708 Y126.145
G0 X133.26 Y125.265
G0 X132.61 Y124.521
G0 X131.802 Y123.956
G0 X131.056 Y123.672
G0 X130.01 Y123.439
G0 X129.934 Y124.072
G1 F2400 X130.753 Y124.173 E3.47858
G1 X131.53 Y124.472 E3.53527
G1 X132.212 Y124.949 E3.59195
G1 X132.786 Y125.608 E3.65147
G1 X133.163 Y126.361 E3.70881
G1 X133.348 Y127.169 E3.76526
G1 X133.334 Y128.006 E3.82227
G1 X133.121 Y128.808 E3.87878
G1 X132.705 Y129.566 E3.93766
G1 X132.119 Y130.188 E3.99586
G1 X131.423 Y130.636 E4.05223
G1 X130.611 Y130.914 E4.11068
G1 X129.781 Y130.981 E4.16738
G1 X125.834 Y130.93 E4.4362
G1 X125.627 Y130.823 E4.45206
G1 X125.578 Y130.69 E4.46172
G1 X125.608 Y128.274 E4.62626
G1 X125.75 Y128.132 E4.63994
G1 X125.868 Y128.104 E4.64819
G1 X129.67 Y128.152 E4.90713
G1 X129.686 Y126.917 E4.99124
G1 X125.875 Y126.868 E5.25079
G1 X125.759 Y126.839 E5.25894
G1 X125.645 Y126.722 E5.27006
G1 X125.619 Y126.629 E5.27664
G1 X125.666 Y122.803 E5.53721
G1 X120.144 Y122.733 E5.91329
G1 X119.208 Y122.804 E5.97721
G1 X118.312 Y123.054 E6.04056
G1 X117.491 Y123.472 E6.1033
G1 X116.762 Y124.049 E6.16661
G1 X116.165 Y124.749 E6.22927
G1 X115.713 Y125.555 E6.2922
G1 X115.432 Y126.439 E6.35536
G1 X115.329 Y127.364 E6.41875
G1 X115.408 Y128.281 E6.48143
G1 X115.666 Y129.17 E6.54446
G1 X116.096 Y129.99 E6.60752
G1 X116.679 Y130.714 E6.67082
G1 X117.387 Y131.302 E6.7335
G1 X118.2 Y131.742 E6.79645
G1 X119.09 Y132.017 E6.85989
G1 X120.023 Y132.112 E6.92375
G1 X129.79 Y132.235 E7.58894
G1 X130.735 Y132.173 E7.65343
G1 X131.64 Y131.927 E7.7173
G1 X132.471 Y131.511 E7.78059
G1 X132.894 Y131.181 E7.81712
G1 X133.209 Y130.935 E7.84434
G1 X133.814 Y130.231 E7.90755
G1 X134.272 Y129.421 E7.97092
G1 X134.559 Y128.53 E8.03467
G1 X134.664 Y127.599 E8.09847
G1 X134.585 Y126.673 E8.16176
G1 X134.322 Y125.774 E8.22555
G1 X133.89 Y124.952 E8.28879
G1 X133.3 Y124.224 E8.3526
G1 X132.584 Y123.634 E8.41578
G1 X131.762 Y123.193 E8.47931
G1 X130.864 Y122.922 E8.54319
G1 X129.924 Y122.833 E8.60749
G1 X128.241 Y122.812 E8.72211
G1 X128.226 Y124.049 E8.80635
G1 X129.934 Y124.072 E8.92268
G0 F3000 X130.132 Y124.096
G0 X130.208 Y123.462
G0 X128.873 Y123.438
G0 X128.852 Y123.438
;TYPE:WALL-INNER
G1 F1743 X129.913 Y123.452 E9.02218
G1 F1714.3 X130.829 Y123.548 E9.10999
G1 F1668.4 X131.517 Y123.784 E9.18124
G1 F1639.9 X132.224 Y124.171 E9.26156
G1 F1622.9 X132.839 Y124.68 E9.34196
G1 F1629.2 X133.326 Y125.258 E9.41778
G1 F1614.5 X133.75 Y126.08 E9.51141
G1 F1585.8 X133.937 Y126.794 E9.58749
G1 F1565.9 X134.001 Y127.591 E9.67094
G1 F1563.9 X133.913 Y128.392 E9.75516
G1 F1581.7 X133.7 Y129.112 E9.83274
G1 F1598 X133.251 Y129.914 E9.92675
G1 F1600 X132.758 Y130.462 E10.00205
G1 F1598 X132.122 Y130.959 E10.0846
G1 F1610.3 X131.41 Y131.322 E10.16572
G1 F1637.8 X130.692 Y131.542 E10.24066
G1 F1677.4 X129.774 Y131.608 E10.33034
G1 F1698 X125.827 Y131.558 E10.71029
G0 F3000 X125.827 Y131.546
G0 X125 Y131.487
G0 X124.938 Y130.737
G0 X124.943 Y130.737
G1 F1659.6 X124.958 Y129.545 E10.82769
G1 F1666.2 X124.973 Y128.353 E10.94463
G0 F3000 X124.967 Y128.353
G0 X124.916 Y127.543
G0 X124.163 Y127.497
G0 X124.163 Y127.478
G1 F1721.4 X122.53 Y127.458 E11.09969
G1 F1726.1 X120.897 Y127.438 E11.25432
G0 F3000 X120.915 Y127.439
G0 X124.911 Y127.435
G0 X124.979 Y126.68
G0 X124.986 Y126.68
G1 F1668.4 X124.996 Y125.885 E11.3322
G1 F1672.9 X125.006 Y125.09 E11.40988
G1 F1679.7 X125.016 Y124.295 E11.48724
G0 F3000 X125.008 Y124.295
G0 X124.962 Y123.467
G0 X124.135 Y123.384
G0 X124.135 Y123.404
G1 F1735.7 X122.115 Y123.378 E11.67746
G1 F1738.2 X120.095 Y123.352 E11.86742
G1 F1709.6 X119.223 Y123.432 E11.95114
G1 F1672.9 X118.543 Y123.648 E12.02084
G1 F1655.2 X117.837 Y124.012 E12.09928
G1 F1648.6 X117.207 Y124.511 E12.17895
G1 F1653 X116.712 Y125.068 E12.25263
G1 F1644.3 X116.273 Y125.862 E12.34281
G1 F1627.1 X116.067 Y126.573 E12.41717
G1 F1612.4 X115.981 Y127.371 E12.49853
G1 F1606.2 X116.048 Y128.162 E12.57931
G1 F1614.5 X116.228 Y128.857 E12.65198
G1 F1631.4 X116.649 Y129.675 E12.74415
G1 F1635.6 X117.221 Y130.359 E12.83325
G1 F1627.1 X117.749 Y130.766 E12.90021
G1 F1633.5 X118.449 Y131.149 E12.98005
G1 F1648.6 X119.096 Y131.378 E13.04809
G1 F1672.9 X119.97 Y131.484 E13.13411
G1 F1688.8 X120.674 Y131.492 E13.20224
G1 F1684.2 X121.378 Y131.5 E13.27057
G1 F1679.7 X122.082 Y131.508 E13.33907
G1 F1675.2 X122.786 Y131.516 E13.40776
G1 F1670.7 X123.49 Y131.524 E13.47664
G1 F1666.2 X124.194 Y131.533 E13.5457
G0 F3000 X124.194 Y131.55
G0 X124.866 Y131.487
G0 X125.05 Y127.527
G0 X125.867 Y127.508
G0 X125.868 Y127.486
G1 F1743 X129.06 Y127.527 E13.84504
;MESH:NONMESH
G0 F600 X129.06 Y127.527 Z0.4
G0 F3000 X129.059 Y127.548
G0 X125.041 Y127.425
G0 X124.983 Y127.096
;TIME_ELAPSED:12.016323
;LAYER:1
M106 S255
;TYPE:WALL-INNER
;MESH:Uinio-Cubic-Shell-Logo.stl
G1 F3192.9 X124.816 Y127.327 E13.85065
G1 X124.595 Y127.484 E13.85599
G1 X124.813 Y127.644 E13.86131
G1 X124.975 Y127.872 E13.86682
G1 X125.141 Y127.639 E13.87245
G1 X125.358 Y127.482 E13.87772
G1 X125.143 Y127.323 E13.88299
G1 X124.983 Y127.096 E13.88845
G0 F4500 X124.973 Y127.096
G0 X124.962 Y123.467
G0 X124.134 Y123.423
G0 X124.138 Y123.164
G1 F3000 X120.156 Y123.113 E13.9719
G1 F2969.1 X119.228 Y123.186 E13.99161
G1 F2920.9 X118.453 Y123.416 E14.00901
G1 F2897.4 X117.702 Y123.801 E14.02732
G1 F2891.6 X117.092 Y124.264 E14.04396
G1 F2897.4 X116.5 Y124.943 E14.06351
G1 F2885.8 X116.055 Y125.74 E14.08339
G1 F2857.1 X115.793 Y126.604 E14.10326
G1 F2834.6 X115.725 Y127.368 E14.12027
G1 X115.798 Y128.208 E14.13896
G1 F2845.8 X116.009 Y128.98 E14.15664
G1 F2874.3 X116.422 Y129.777 E14.17627
G1 F2880 X117.004 Y130.494 E14.19643
G1 F2862.8 X117.608 Y130.975 E14.21339
G1 F2868.5 X118.352 Y131.38 E14.23195
G1 F2891.6 X119.097 Y131.629 E14.24903
G1 F2926.8 X120.055 Y131.729 E14.26971
G1 F2956.9 X120.882 Y131.739 E14.2873
G1 F2944.8 X121.709 Y131.749 E14.30495
G1 F2932.8 X122.536 Y131.759 E14.32268
G1 F2926.8 X123.363 Y131.769 E14.34044
G1 F2915 X124.19 Y131.779 E14.35828
G1 F3221.5 X124.93 Y131.833 E14.37276
G1 F3243.2 X125.824 Y131.801 E14.39009
G1 F2956.9 X129.78 Y131.852 E14.4742
G1 F2926.8 X130.703 Y131.788 E14.49408
G1 F2868.5 X131.582 Y131.535 E14.51412
G1 F2834.6 X132.259 Y131.175 E14.53112
G1 F2823.5 X132.935 Y130.648 E14.55021
G1 X133.475 Y130.032 E14.56845
G1 F2818 X133.925 Y129.23 E14.58896
G1 F2790.7 X134.192 Y128.365 E14.60935
G1 F2769.2 X134.263 Y127.594 E14.62693
G1 F2829.1 X134.232 Y127.093 E14.63808
G1 F2845.8 X134.194 Y126.772 E14.64522
G1 F2801.6 X133.976 Y125.963 E14.66402
G1 F2834.6 X133.547 Y125.139 E14.68462
G1 F2857.1 X132.967 Y124.438 E14.70464
G1 X132.365 Y123.961 E14.72154
G1 F2880 X131.612 Y123.553 E14.74023
G1 F2915 X130.834 Y123.304 E14.75785
G1 F2975.2 X129.893 Y123.212 E14.77782
G1 F3012.6 X128.616 Y123.195 E14.80447
G1 F3006.3 X128.609 Y123.674 E14.81449
G1 F3018.9 X129.963 Y123.694 E14.84269
G1 F3038 X130.813 Y123.793 E14.86039
G1 F3031.6 X131.642 Y124.094 E14.87868
G1 F2938.8 X132.08 Y124.377 E14.88984
G1 F2891.6 X132.527 Y124.705 E14.90189
G1 F2897.4 X133.112 Y125.386 E14.92137
G1 F2845.8 X133.522 Y126.19 E14.9413
G1 F2840.2 X133.737 Y127.059 E14.96112
G1 F2857.1 X133.72 Y128.124 E14.98455
G1 F2829.1 X133.474 Y128.995 E15.00466
G1 F2818 X133.03 Y129.788 E15.02494
G1 F2857.1 X132.425 Y130.446 E15.0446
G1 X131.985 Y130.745 E15.05631
G1 F2880 X131.53 Y131.018 E15.06789
G1 F2915 X130.67 Y131.296 E15.08738
G1 F2932.8 X129.829 Y131.363 E15.10546
G1 F2956.9 X125.83 Y131.314 E15.19048
G1 F3243.2 X125.351 Y131.022 E15.20136
G1 F3214.3 X125.191 Y130.719 E15.20806
G1 F2909.1 X125.22 Y128.357 E15.2591
G1 F3221.5 X125.329 Y128.097 E15.2646
G1 F3600 X125.442 Y127.94 E15.26798
G1 X125.597 Y127.828 E15.27132
G1 F3280.2 X125.868 Y127.725 E15.27688
G1 F3012.6 X129.296 Y127.768 E15.34841
G1 X129.302 Y127.291 E15.35837
G1 X125.87 Y127.247 E15.42999
G1 F3280.2 X125.602 Y127.141 E15.43551
G1 F3600 X125.448 Y127.027 E15.43886
G1 F3221.5 X125.233 Y126.661 E15.44714
G1 F2915 X125.247 Y125.48 E15.47261
G1 F2926.8 X125.262 Y124.299 E15.49798
G1 F3236 X125.316 Y123.576 E15.51206
G1 F3428.6 X125.321 Y123.116 E15.52049
G1 F3200 X124.729 Y123.14 E15.53213
G1 F3063.8 X124.137 Y123.164 E15.54429
G0 F4500 X124.133 Y123.423
G0 X124.962 Y123.467
G0 X124.911 Y127.435
G0 X120.886 Y127.426
G0 X120.66 Y127.194
G1 F2993.8 X120.654 Y127.676 E15.55441
G1 F2987.6 X124.14 Y127.719 E15.62777
G1 F3265.3 X124.509 Y127.941 E15.63606
G1 F3600 X124.618 Y128.095 E15.63935
G1 F3221.5 X124.726 Y128.355 E15.64485
G1 F2909.1 X124.695 Y130.713 E15.6958
G1 F3214.3 X124.528 Y131.012 E15.7025
G1 F3221.5 X124.152 Y131.289 E15.71161
G1 F2915 X123.449 Y131.281 E15.72678
G1 F2926.8 X122.746 Y131.272 E15.74188
G1 F2938.8 X122.043 Y131.263 E15.75691
G1 F2950.8 X121.34 Y131.255 E15.77189
G1 F2963 X120.637 Y131.246 E15.78681
G1 F2975.2 X119.934 Y131.237 E15.80166
G1 F2981.4 X119.117 Y131.132 E15.81903
G1 F2987.6 X118.307 Y130.83 E15.83722
G1 F2920.9 X117.896 Y130.562 E15.84778
G1 F2897.4 X117.431 Y130.216 E15.86035
G1 F2926.8 X116.855 Y129.539 E15.87944
G1 F2885.8 X116.451 Y128.739 E15.89897
G1 F2880 X116.241 Y127.886 E15.91814
G1 F2903.2 X116.257 Y126.831 E15.94099
G1 F2891.6 X116.496 Y125.975 E15.96031
G1 F2885.8 X116.923 Y125.197 E15.97964
G1 F2920.9 X117.517 Y124.538 E15.99873
G1 F2969.1 X118.395 Y123.959 E16.021
G1 X119.225 Y123.679 E16.03955
G1 F2981.4 X120.06 Y123.595 E16.05724
G1 F3012.6 X122.096 Y123.619 E16.09973
G1 F3006.3 X124.132 Y123.644 E16.14231
G1 F3272.7 X124.561 Y123.871 E16.15163
G1 F3236 X124.77 Y124.293 E16.16078
G1 F2926.8 X124.755 Y125.476 E16.18619
G1 F2915 X124.739 Y126.659 E16.2117
G1 F3221.5 X124.517 Y127.024 E16.22004
G1 F3265.3 X124.145 Y127.237 E16.22829
G1 F2987.6 X120.66 Y127.194 E16.30162
G0 F4500 X120.225 Y126.748
;TYPE:WALL-OUTER
G1 F2550 X120.208 Y128.111 E16.32543
G1 X124.149 Y128.161 E16.39425
G1 X124.28 Y128.293 E16.39749
G1 X124.249 Y130.669 E16.43899
G1 X124.209 Y130.77 E16.44088
G1 X124.081 Y130.847 E16.44349
G1 X119.974 Y130.796 E16.51521
G1 X119.177 Y130.685 E16.52926
G1 X118.454 Y130.397 E16.54285
G1 X118.16 Y130.194 E16.54909
G1 X117.773 Y129.917 E16.5574
G1 X117.246 Y129.307 E16.57148
G1 X116.863 Y128.548 E16.58632
G1 X116.685 Y127.766 E16.60033
G1 X116.698 Y126.953 E16.61452
G1 X116.903 Y126.176 E16.62856
G1 X117.289 Y125.461 E16.64275
G1 X117.85 Y124.842 E16.65733
G1 X118.526 Y124.391 E16.67152
G1 X119.29 Y124.119 E16.68568
G1 X120.088 Y124.033 E16.6997
G1 X124.127 Y124.084 E16.77023
G1 X124.27 Y124.146 E16.77295
G1 X124.325 Y124.287 E16.7756
G1 X124.294 Y126.616 E16.81627
G1 X124.235 Y126.74 E16.81866
G1 X124.11 Y126.797 E16.82106
G1 X120.225 Y126.748 E16.88891
G0 F4500 X120.223 Y126.948
G0 X120.886 Y127.426
G0 X124.911 Y127.435
G0 X125.033 Y123.572
G0 X124.938 Y123.571
;TYPE:WALL-INNER
G1 F3038 X124.908 Y123.622 E16.89013
G1 X124.85 Y123.622 E16.89133
G1 X124.821 Y123.571 E16.89255
G1 X124.85 Y123.52 E16.89376
G1 X124.908 Y123.52 E16.89496
G0 F4500 X125.033 Y123.522
G0 X125 Y131.487
G0 X129.816 Y131.559
G0 X130.737 Y131.483
G0 X131.671 Y131.165
G0 X132.501 Y130.629
G0 X133.175 Y129.908
G0 X133.656 Y129.046
G0 X133.911 Y128.091
G0 X133.929 Y127.106
G0 X133.708 Y126.145
G0 X133.26 Y125.265
G0 X132.61 Y124.521
G0 X131.802 Y123.956
G0 X131.056 Y123.672
G0 X130.009 Y123.438
G0 X129.926 Y124.132
;TYPE:WALL-OUTER
G1 F2550 X130.736 Y124.231 E16.90921
G1 X131.501 Y124.526 E16.92353
G1 X132.174 Y124.995 E16.93785
G1 X132.714 Y125.609 E16.95213
G1 X133.106 Y126.378 E16.9672
G1 X133.288 Y127.174 E16.98146
G1 X133.274 Y127.999 E16.99587
G1 X133.063 Y128.789 E17.01014
G1 X132.645 Y129.542 E17.02518
G1 X132.082 Y130.141 E17.03954
G1 X131.396 Y130.582 E17.05378
G1 X130.616 Y130.849 E17.06817
G1 X129.782 Y130.921 E17.08279
G1 X125.835 Y130.87 E17.15172
G1 X125.675 Y130.788 E17.15486
G1 X125.638 Y130.685 E17.15677
G1 X125.668 Y128.294 E17.19852
G1 X125.8 Y128.163 E17.20177
G1 X129.729 Y128.213 E17.27038
G1 X129.747 Y126.858 E17.29404
G1 X125.876 Y126.808 E17.36164
G1 X125.735 Y126.748 E17.36432
G1 X125.679 Y126.625 E17.36668
G1 X125.727 Y122.744 E17.43445
G1 X120.113 Y122.674 E17.53249
G1 X119.197 Y122.744 E17.54853
G1 X118.29 Y122.998 E17.56498
G1 X117.459 Y123.421 E17.58126
G1 X116.72 Y124.005 E17.59771
G1 X116.115 Y124.714 E17.61398
G1 X115.658 Y125.531 E17.63033
G1 X115.373 Y126.426 E17.64673
