;FLAVOR:Marlin
;TIME:1322
;Filament used: 0.720334m
;Layer height: 0.1
;MINX:103.1
;MINY:105.013
;MINZ:0.3
;MAXX:146.917
;MAXY:149.962
;MAXZ:3
;Generated with Cura_SteamEngine main
M140 S60
M105
M190 S60
M104 S190
M105
M109 S190
M82 ;absolute extrusion mode
G21 ;metric values
G90 ;absolute positioning
M82 ;set extruder to absolute mode
M107 ;start with the fan off
G28 X0 Y0 ;move X/Y to min endstops
M300 S1318 P266
G28 Z0 ;move Z to min endstops
G0 Z0.2
G92 E0 ;zero the extruded length
G1 X40 E25 F400 ; Extrude 25mm of filament in a 4cm line. Reduce speed (F) if you have a nozzle smaller than 0.4mm!
G92 E0 ;zero the extruded length again
G1 E-1 F500 ; Retract a little
G1 X80 F4000 ; Quickly wipe away from the filament line
M117 ; Printing…
G5
G92 E0
G92 E0
G1 F1500 E-7
;LAYER_COUNT:28
;LAYER:0
M107
G0 F3000 X106.68 Y118.097 Z0.3
;TYPE:SUPPORT
G1 F1500 E0
G1 F2400 X106.68 Y124.21 E0.4163
G0 F3000 X104.968 Y122.682
G1 F2400 X110.795 Y122.682 E0.81312
G0 F3000 X109.347 Y124.099
G1 F2400 X109.347 Y118.219 E1.21354
G0 F3000 X110.974 Y120.015
G1 F2400 X104.79 Y120.015 E1.63468
G1 F1500 E-5.36532
G0 F3000 X116.19 Y120.015
G1 F1500 E1.63468
G1 F2400 X121.912 Y120.015 E2.02434
G0 F3000 X120.015 Y121.537
G1 F2400 X120.015 Y115.252 E2.45235
G0 F3000 X117.348 Y115.592
G1 F2400 X117.348 Y121.206 E2.83467
G1 F1500 E-4.16533
G0 F3000 X115.944 Y117.348
G1 F1500 E2.83467
G1 F2400 X122.16 Y117.348 E3.25798
G1 F1500 E-3.74202
G0 F3000 X125.349 Y112.799
G1 F1500 E3.25798
G1 F2400 X125.349 Y106.81 E3.66583
G0 F3000 X125.674 Y106.68
G1 F2400 X127.698 Y106.68 E3.80366
G0 F3000 X128.016 Y106.799
G1 F2400 X128.016 Y112.812 E4.21315
G0 F3000 X129.125 Y112.014
G1 F2400 X124.266 Y112.014 E4.54405
G0 F3000 X123.44 Y109.347
G1 F2400 X129.945 Y109.347 E4.98704
G1 F1500 E-2.01296
G0 F3000 X130.683 Y116.957
G1 F1500 E4.98704
G1 F2400 X130.683 Y123.115 E5.4064
G0 F3000 X129.915 Y122.682
G1 F2400 X133.805 Y122.682 E5.67131
G0 F3000 X133.35 Y122.968
G1 F2400 X133.35 Y117.105 E6.07058
G0 F3000 X133.741 Y117.348
G1 F2400 X129.966 Y117.348 E6.32766
G0 F3000 X128.558 Y120.015
G1 F2400 X135.132 Y120.015 E6.77535
G1 F1500 E-0.22465
G0 F3000 X139.951 Y122.682
G1 F1500 E6.77535
G1 F2400 X144.314 Y122.682 E7.07247
G0 F3000 X144.018 Y122.445
G1 F2400 X144.018 Y127.83 E7.43919
G0 F3000 X143.715 Y128.016
G1 F2400 X140.56 Y128.016 E7.65405
G0 F3000 X141.351 Y128.32
G1 F2400 X141.351 Y121.952 E8.08771
G1 F1500 E1.08771
G0 F3000 X138.86 Y125.349
G1 F1500 E8.08771
G1 F2400 X145.416 Y125.349 E8.53417
G1 F1500 E1.53417
G0 F3000 X136.017 Y130.802
G1 F1500 E8.53417
G1 F2400 X136.017 Y136.624 E8.93065
G0 F3000 X136.822 Y136.017
G1 F2400 X132.143 Y136.017 E9.24929
G0 F3000 X133.35 Y136.804
G1 F2400 X133.35 Y130.619 E9.67049
G1 X133.214 Y130.683
G1 X135.754 Y130.683 E9.84346
G1 F1500 E2.84346
G0 F3000 X137.76 Y133.35
G1 F1500 E9.84346
G1 F2400 X131.227 Y133.35 E10.28836
G1 F1500 E3.28836
G0 F3000 X126.717 Y130.683
G1 F1500 E10.28836
G1 F2400 X121.67 Y130.683 E10.63206
G0 F3000 X122.682 Y131.497
G1 F2400 X122.682 Y125.667 E11.02909
G0 F3000 X123.529 Y125.349
G1 F2400 X124.862 Y125.349 E11.11987
G0 F3000 X125.349 Y125.504
G1 F2400 X125.349 Y131.653 E11.53861
G1 F1500 E4.53861
G0 F3000 X127.438 Y128.016
G1 F1500 E11.53861
G1 F2400 X120.953 Y128.016 E11.98024
G1 F1500 E4.98024
G0 F3000 X122.682 Y137.122
G1 F1500 E11.98024
G1 F2400 X122.682 Y142.942 E12.37659
G0 F3000 X121.175 Y141.351
G1 F2400 X127.196 Y141.351 E12.78662
G0 F3000 X125.349 Y143.103
G1 F2400 X125.349 Y136.963 E13.20475
G0 F3000 X127.185 Y138.684
G1 F2400 X121.191 Y138.684 E13.61294
G1 F1500 E6.61294
G0 F3000 X115.688 Y133.349
G1 F1500 E13.61294
G1 F2400 X110.484 Y133.349 E13.96734
G0 F3000 X112.014 Y134.434
G1 F2400 X112.014 Y128.226 E14.3901
G0 F3000 X114.681 Y128.461
G1 F2400 X114.681 Y134.212 E14.78175
G1 F1500 E7.78175
G0 F3000 X116.308 Y130.683
G1 F1500 E14.78175
G1 F2400 X109.866 Y130.683 E15.22045
G1 F1500 E8.22045
G0 F3000 X112.014 Y139.729
G1 F1500 E15.22045
G1 F2400 X112.014 Y145.986 E15.64655
G0 F3000 X114.681 Y145.692
G1 F2400 X114.681 Y140.025 E16.03247
G0 F3000 X115.924 Y141.35
G1 F2400 X110.086 Y141.35 E16.43004
G0 F3000 X109.937 Y144.017
G1 F2400 X116.08 Y144.017 E16.84838
G1 F1500 E9.84838
G0 F3000 X131.398 Y144.018
G1 F1500 E16.84838
G1 F2400 X137.542 Y144.018 E17.26679
G0 F3000 X136.017 Y142.265
G1 F2400 X136.017 Y148.062 E17.66156
G0 F3000 X137.378 Y146.685
G1 F2400 X131.56 Y146.685 E18.05777
G0 F3000 X133.35 Y148.254
G1 F2400 X133.35 Y142.081 E18.47815
G1 F1500 E11.47815
;MESH:Uinio-Cubic-Shell-Cap.stl(2)
G0 F3000 X112.135 Y122.857
G0 X107.858 Y116.909
;TYPE:WALL-OUTER
G1 F1500 E18.47815
G1 F2521.2 X108.693 Y116.983 E18.53249
G1 F2541.8 X109.507 Y117.226 E18.58712
G1 F2546.9 X110.376 Y117.708 E18.65089
G1 F2541.8 X111.019 Y118.287 E18.70653
G1 F2536.6 X111.509 Y118.938 E18.75903
G1 F2516.1 X111.876 Y119.707 E18.81437
G1 F2501 X112.082 Y120.501 E18.86798
G1 F2511.1 X112.13 Y121.347 E18.92313
G1 F2531.4 X112.012 Y122.175 E18.97713
G1 F2541.8 X111.739 Y122.949 E19.02991
G1 F2501 X111.472 Y123.405 E19.06444
G1 X111.191 Y123.831 E19.09779
G1 F2541.8 X110.6 Y124.425 E19.15167
G1 F2536.6 X109.918 Y124.89 E19.20486
G1 F2526.3 X109.176 Y125.205 E19.25701
G1 F2506 X108.335 Y125.383 E19.31307
G1 F2501 X107.487 Y125.39 E19.36849
G1 F2526.3 X106.66 Y125.231 E19.42297
G1 F2536.6 X105.798 Y124.875 E19.48306
G1 X105.058 Y124.335 E19.54209
G1 F2531.4 X104.492 Y123.723 E19.59591
G1 F2521.2 X104.055 Y123.006 E19.65034
G1 F2511.1 X103.763 Y122.198 E19.70626
G1 F2506 X103.641 Y121.397 E19.75911
G1 F2516.1 X103.675 Y120.547 E19.81436
G1 F2526.3 X103.876 Y119.736 E19.86842
G1 F2536.6 X104.268 Y118.895 E19.92821
G1 X104.844 Y118.182 E19.98726
G1 F2531.4 X105.491 Y117.643 E20.04163
G1 F2521.2 X106.223 Y117.244 E20.09568
G1 F2511.1 X107.029 Y116.994 E20.1506
G1 X107.858 Y116.909 E20.20485
G0 F3000 X108.057 Y116.926
G0 X107.773 Y116.411
G1 F2496 X106.93 Y116.505 E20.26039
G1 X106.077 Y116.764 E20.31876
G1 F2476.2 X105.303 Y117.168 E20.37639
G1 F2461.5 X104.606 Y117.716 E20.43526
G1 F2456.7 X104.105 Y118.287 E20.4858
G1 F2451.9 X103.653 Y119.009 E20.54258
G1 F2456.7 X103.356 Y119.715 E20.59353
G1 F2466.4 X103.167 Y120.578 E20.65208
G1 F2481.1 X103.146 Y121.481 E20.71158
G1 F2501 X103.28 Y122.321 E20.76717
G1 F2491 X103.576 Y123.16 E20.82554
G1 F2471.3 X104.019 Y123.924 E20.88395
G1 F2456.7 X104.529 Y124.514 E20.93583
G1 F2451.9 X105.182 Y125.056 E20.9924
G1 F2456.7 X105.926 Y125.478 E21.04931
G1 F2466.4 X106.648 Y125.746 E21.10034
G1 F2471.3 X107.526 Y125.894 E21.15923
G1 F2481.1 X108.416 Y125.875 E21.21787
G1 F2496 X109.255 Y125.704 E21.27394
G1 F2486.1 X110.088 Y125.367 E21.33301
G1 F2461.5 X110.825 Y124.888 E21.39137
G1 F2456.7 X111.385 Y124.357 E21.44271
G1 X111.903 Y123.676 E21.49964
G1 F2461.5 X112.289 Y122.918 E21.55612
G1 F2466.4 X112.525 Y122.173 E21.6079
G1 F2476.2 X112.63 Y121.258 E21.66869
G1 F2491 X112.576 Y120.437 E21.72268
G1 F2496 X112.363 Y119.585 E21.78018
G1 F2476.2 X111.985 Y118.762 E21.83996
G1 F2461.5 X111.476 Y118.049 E21.89813
G1 F2456.7 X110.919 Y117.512 E21.9496
G1 X110.223 Y117.031 E22.00589
G1 X109.532 Y116.702 E22.0568
G1 F2461.5 X108.677 Y116.473 E22.11558
G1 F2476.2 X107.773 Y116.411 E22.17538
G0 F3000 X107.575 Y116.433
G1 F1500 E15.17538
;MESH:Uinio-Cubic-Shell-Cap.stl(8)
G0 F3000 X107.602 Y116.68
G0 X108.778 Y116.806
G0 X109.635 Y117.076
G0 X110.42 Y117.512
G0 X111.101 Y118.097
G0 X111.652 Y118.807
G0 X112.048 Y119.615
G0 X112.273 Y120.485
G0 X112.319 Y121.382
G0 X112.183 Y122.271
G0 X111.931 Y122.952
G0 X111.267 Y124.243
G0 X112.168 Y126.841
G0 X112.977 Y126.58
;TYPE:WALL-OUTER
G1 F1500 E22.17538
G1 F2496 X112.134 Y126.674 E22.23093
G1 X111.315 Y126.923 E22.28698
G1 F2476.2 X110.509 Y127.336 E22.34676
G1 F2461.5 X109.814 Y127.881 E22.4054
G1 F2451.9 X109.309 Y128.456 E22.45641
G1 F2447.1 X108.857 Y129.178 E22.51331
G1 F2451.9 X108.56 Y129.885 E22.56442
G1 F2466.4 X108.371 Y130.753 E22.62329
G1 F2481.1 X108.35 Y131.65 E22.6824
G1 F2501 X108.484 Y132.491 E22.73805
G1 F2491 X108.78 Y133.329 E22.79636
G1 F2466.4 X109.224 Y134.094 E22.85497
G1 F2451.9 X109.733 Y134.684 E22.90692
G1 X110.386 Y135.226 E22.96349
G1 F2456.7 X111.129 Y135.647 E23.0203
G1 F2466.4 X111.853 Y135.915 E23.07146
G1 F2471.3 X112.729 Y136.063 E23.13021
G1 F2486.1 X113.62 Y136.045 E23.1888
G1 F2501 X114.459 Y135.873 E23.24477
G1 F2486.1 X115.291 Y135.536 E23.30379
G1 F2466.4 X116.03 Y135.057 E23.36214
G1 F2461.5 X116.654 Y134.464 E23.4193
G1 X117.107 Y133.846 E23.47018
G1 F2456.7 X117.493 Y133.088 E23.52677
G1 F2461.5 X117.732 Y132.329 E23.5796
G1 F2476.2 X117.834 Y131.427 E23.63952
G1 F2491 X117.78 Y130.606 E23.6935
G1 F2496 X117.567 Y129.755 E23.75095
G1 F2476.2 X117.188 Y128.93 E23.81087
G1 F2461.5 X116.677 Y128.213 E23.86933
G1 F2456.7 X116.123 Y127.681 E23.92043
G1 X115.427 Y127.2 E23.97672
G1 X114.736 Y126.871 E24.02763
G1 F2461.5 X113.881 Y126.642 E24.0864
G1 F2476.2 X112.977 Y126.58 E24.14621
G0 F3000 X112.779 Y126.602
G0 X113.062 Y127.078
G1 F2521.2 X113.897 Y127.152 E24.20055
G1 F2541.8 X114.702 Y127.393 E24.25459
G1 F2552.1 X115.517 Y127.824 E24.31363
G1 F2546.9 X116.209 Y128.439 E24.37304
G1 F2536.6 X116.714 Y129.109 E24.4271
G1 F2516.1 X117.08 Y129.876 E24.4823
G1 F2501 X117.286 Y130.67 E24.53591
G1 F2491 X117.329 Y131.434 E24.58611
G1 F2511.1 X117.328 Y131.556 E24.59406
G1 F2546.9 X117.217 Y132.343 E24.64506
G1 X116.943 Y133.118 E24.69781
G1 F2501 X116.675 Y133.576 E24.73249
G1 F2506 X116.4 Y133.994 E24.76512
G1 F2546.9 X115.819 Y134.584 E24.81825
G1 F2531.4 X115.121 Y135.061 E24.87284
G1 F2511.1 X114.337 Y135.388 E24.92813
G1 F2496 X113.539 Y135.552 E24.98147
G1 F2501 X112.691 Y135.559 E25.03689
G1 F2526.3 X111.865 Y135.4 E25.09131
G1 F2541.8 X111.095 Y135.084 E25.14483
G1 F2496 X110.677 Y134.808 E25.17763
G1 F2491 X110.262 Y134.506 E25.21131
G1 F2531.4 X109.696 Y133.893 E25.26518
G1 F2521.2 X109.261 Y133.178 E25.31943
G1 F2511.1 X108.967 Y132.367 E25.37558
G1 F2501 X108.846 Y131.566 E25.42852
G1 F2511.1 X108.88 Y130.717 E25.48382
G1 F2526.3 X109.079 Y129.908 E25.53772
G1 F2536.6 X109.47 Y129.071 E25.59724
G1 X110.047 Y128.352 E25.65665
G1 F2531.4 X110.698 Y127.809 E25.71138
G1 F2516.1 X111.434 Y127.414 E25.76564
G1 F2506 X112.233 Y127.163 E25.82026
G1 F2511.1 X113.062 Y127.078 E25.8745
G0 F3000 X113.261 Y127.095
G1 F1500 E18.8745
;MESH:Uinio-Cubic-Shell-Cap.stl(10)
G0 F3000 X113.287 Y126.845
G0 X114.599 Y127.004
G0 X115.045 Y126.017
G0 X119.106 Y126.105
G0 X124.171 Y124.33
;TYPE:WALL-OUTER
G1 F1500 E25.8745
G1 F2521.2 X125.005 Y124.404 E25.92878
G1 F2541.8 X125.812 Y124.646 E25.98295
G1 F2552.1 X126.625 Y125.075 E26.04182
G1 F2546.9 X127.322 Y125.695 E26.10168
G1 F2531.4 X127.823 Y126.363 E26.15559
G1 F2511.1 X128.189 Y127.128 E26.21079
G1 F2501 X128.395 Y127.922 E26.2644
G1 F2491 X128.438 Y128.686 E26.3146
G1 F2511.1 X128.437 Y128.808 E26.32254
G1 F2541.8 X128.324 Y129.596 E26.37373
G1 X128.053 Y130.366 E26.42622
G1 F2501 X127.784 Y130.827 E26.4611
G1 X127.508 Y131.246 E26.49389
G1 F2541.8 X126.923 Y131.839 E26.54745
G1 F2526.3 X126.226 Y132.314 E26.60202
G1 F2511.1 X125.445 Y132.64 E26.65711
G1 F2501 X124.65 Y132.803 E26.71014
G1 F2506 X123.8 Y132.811 E26.76558
G1 F2526.3 X122.99 Y132.655 E26.81894
G1 F2536.6 X122.201 Y132.336 E26.87378
G1 X121.372 Y131.759 E26.93886
G1 F2531.4 X120.805 Y131.144 E26.99287
G1 F2521.2 X120.368 Y130.427 E27.0473
G1 F2511.1 X120.076 Y129.619 E27.10322
G1 F2506 X119.954 Y128.818 E27.15606
G1 F2516.1 X119.988 Y127.97 E27.21119
G1 F2526.3 X120.186 Y127.164 E27.26489
G1 F2536.6 X120.58 Y126.32 E27.3249
G1 X121.156 Y125.604 E27.38411
G1 F2531.4 X121.807 Y125.062 E27.4388
G1 F2516.1 X122.542 Y124.666 E27.49303
G1 F2506 X123.342 Y124.415 E27.54772
G1 X124.171 Y124.33 E27.60207
G0 F3000 X124.37 Y124.347
G0 X124.085 Y123.832
G1 F2496 X123.242 Y123.926 E27.65761
G1 F2491 X122.39 Y124.185 E27.71604
G1 F2471.3 X121.616 Y124.589 E27.77378
G1 F2461.5 X120.923 Y125.133 E27.83228
G1 F2456.7 X120.418 Y125.708 E27.88319
G1 F2451.9 X119.966 Y126.43 E27.93997
G1 F2456.7 X119.667 Y127.142 E27.99135
G1 F2466.4 X119.48 Y128.001 E28.0496
G1 F2481.1 X119.458 Y128.902 E28.10897
G1 F2501 X119.592 Y129.743 E28.16463
G1 F2491 X119.889 Y130.582 E28.22302
G1 F2471.3 X120.333 Y131.345 E28.2814
G1 F2461.5 X120.842 Y131.935 E28.33314
G1 F2456.7 X121.494 Y132.477 E28.38955
G1 X122.238 Y132.899 E28.44645
G1 F2466.4 X122.966 Y133.168 E28.49789
G1 F2471.3 X123.837 Y133.315 E28.5563
G1 F2486.1 X124.728 Y133.297 E28.61489
G1 F2501 X125.567 Y133.125 E28.67086
G1 F2486.1 X126.397 Y132.789 E28.72973
G1 F2461.5 X127.139 Y132.309 E28.78841
G1 F2456.7 X127.698 Y131.778 E28.8397
G1 X128.215 Y131.097 E28.89658
G1 X128.602 Y130.339 E28.9532
G1 F2461.5 X128.839 Y129.587 E29.00556
G1 F2476.2 X128.943 Y128.679 E29.06588
G1 F2491 X128.889 Y127.858 E29.11986
G1 F2496 X128.675 Y127.006 E29.17739
G1 F2476.2 X128.298 Y126.182 E29.2372
G1 F2461.5 X127.784 Y125.464 E29.29583
G1 F2456.7 X127.232 Y124.934 E29.34674
G1 F2451.9 X126.535 Y124.452 E29.40323
G1 F2456.7 X125.843 Y124.122 E29.45423
G1 F2461.5 X124.988 Y123.894 E29.51299
G1 F2476.2 X124.085 Y123.832 E29.57273
G0 F3000 X123.887 Y123.854
G1 F1500 E22.57273
;MESH:Uinio-Cubic-Shell-Cap.stl(3)
G0 F3000 X123.914 Y124.101
G0 X122.487 Y124.33
G0 X121.493 Y122.277
G0 X118.6 Y114.177
;TYPE:WALL-OUTER
G1 F1500 E29.57273
G1 F2506 X119.448 Y114.169 E29.62804
G1 F2531.4 X120.275 Y114.328 E29.68241
G1 F2552.1 X121.045 Y114.644 E29.73571
G1 F2506 X121.463 Y114.92 E29.76838
G1 F2501 X121.879 Y115.224 E29.80205
G1 F2541.8 X122.443 Y115.836 E29.85557
G1 F2531.4 X122.882 Y116.554 E29.9099
G1 F2516.1 X123.173 Y117.363 E29.96575
G1 F2506 X123.295 Y118.162 E30.01846
G1 F2521.2 X123.296 Y118.206 E30.02131
G1 F2536.6 X123.26 Y119.013 E30.07336
G1 F2546.9 X123.061 Y119.821 E30.12676
G1 F2552.1 X122.669 Y120.658 E30.18595
G1 X122.093 Y121.376 E30.2449
G1 F2541.8 X121.442 Y121.919 E30.29941
G1 F2521.2 X120.706 Y122.314 E30.35356
G1 F2511.1 X119.907 Y122.565 E30.40807
G1 X119.078 Y122.65 E30.46231
G1 F2521.2 X118.243 Y122.576 E30.51665
G1 F2536.6 X117.438 Y122.335 E30.5708
G1 F2541.8 X116.621 Y121.903 E30.63023
G1 X115.931 Y121.288 E30.68966
G1 F2526.3 X115.426 Y120.619 E30.74389
G1 F2511.1 X115.06 Y119.852 E30.7992
G1 F2506 X114.854 Y119.058 E30.8527
G1 F2511.1 X114.806 Y118.212 E30.90785
G1 F2526.3 X114.924 Y117.384 E30.96196
G1 F2536.6 X115.197 Y116.611 E31.01478
G1 F2541.8 X115.665 Y115.811 E31.07438
G1 F2536.6 X116.321 Y115.143 E31.13471
G1 F2521.2 X117.02 Y114.667 E31.18953
G1 F2511.1 X117.803 Y114.34 E31.24476
G1 F2501 X118.6 Y114.177 E31.29792
G0 F3000 X118.8 Y114.176
G0 X118.521 Y113.683
G1 F2501 X117.681 Y113.856 E31.35397
G1 F2486.1 X116.85 Y114.191 E31.41287
G1 F2466.4 X116.11 Y114.671 E31.47132
G1 F2461.5 X115.551 Y115.202 E31.52251
G1 F2456.7 X115.033 Y115.882 E31.57938
G1 X114.647 Y116.64 E31.63598
G1 F2461.5 X114.411 Y117.386 E31.68793
G1 F2471.3 X114.304 Y118.262 E31.74629
G1 F2491 X114.363 Y119.145 E31.80436
G1 F2496 X114.571 Y119.969 E31.86001
G1 F2481.1 X114.952 Y120.798 E31.92011
G1 F2466.4 X115.463 Y121.515 E31.97845
G1 F2456.7 X116.017 Y122.047 E32.02955
G1 X116.713 Y122.528 E32.08584
G1 F2461.5 X117.404 Y122.857 E32.13665
G1 F2466.4 X118.259 Y123.086 E32.19531
G1 F2476.2 X119.163 Y123.148 E32.25512
G1 F2496 X120.006 Y123.054 E32.31066
G1 F2491 X120.859 Y122.795 E32.36915
G1 F2471.3 X121.633 Y122.391 E32.42689
G1 F2461.5 X122.326 Y121.847 E32.48539
G1 F2456.7 X122.831 Y121.272 E32.5363
G1 X123.283 Y120.55 E32.59297
G1 F2461.5 X123.58 Y119.843 E32.64389
G1 F2466.4 X123.769 Y118.98 E32.70243
G1 F2481.1 X123.79 Y118.1 E32.76042
G1 F2501 X123.656 Y117.237 E32.81749
